X:177
T:On parole debatre
C:Manuscript de Montpellier (XIIIe siècle)
R:Motet
M:3/4
L:1/8
Q:1/4=120
% Last note suggests Mizolydian mode tune
K:C 
V:1
f2f2c2 | d2e2fe | d2e fg2 | a2a2gf | 
efg4 | z6 | a2a2gf | g2d2e2 | 
f6 | d2e2f2 | g2f ed2 | e2e2gf | 
edf4 | z6 | a2a gfe | d2g4 | 
f2e dc2 | d2e2f2 | g2g2f2 | e2 (3edcd2 | 
efg4 | g2f2ed | e6 | z6 | 
f2f4 | g2a2a2 | g2f ed2 | c2d4 | 
ede2fg | fed2ef | gaa2gf | g6 |]
V:2
c6 | B2A4 | d6 | e2d4 | 
cBc4 | A2B cd2 | e2d2c2 | d3- d2z | 
c6 | d2c4 | d6 | c2B4 | 
AGF4 | A2B cAG | A6 | d2d4 | 
f6 | d2e4 | d6 | e2f4 | 
edc4 | c2d4 | e3- e2z | d2c2B2 | 
c6 | d2c4 | d6 | c2B4 | 
AGA4 | c2d2cB | A4Bc | d6 |]
V:3
F,6 | G,2A,4 | G,6 | A,2z4 | 
A,B,C4 | C2B, A,A,B, | A,6 | G,3- G,2z | 
F,6 | G,2A,4 | G,6 | A,2z4 | 
A,B,C4 | C2B, A,A,B, | A,6 | G,3- G,2z | 
F,6 | G,2A,4 | G,6 | A,2z4 | 
A,B,C4 | C2B, A,A,B, | A,6 | G,3- G,2z | 
F,6 | G,2A,4 | G,6 | A,2z4 | 
A,B,C4 | C2B, A,A,B, | A,6 | G,6 |]





